src/assets/svg/icons/fa/nuevos/classic/thin/fill-drip classic thin.svg

<svg xmlns="http://www.w3.org/2000/svg" viewBox="0 0 576 512"><path d="M34.34 2.343C37.47-.781 42.53-.781 45.66 2.343L151 107.7L232.4 26.34C254.3 4.473 289.7 4.473 311.6 26.34L485.7 200.4C507.5 222.3 507.5 257.7 485.7 279.6L283.9 481.4C246.4 518.9 185.6 518.9 148.1 481.4L30.63 363.9C-6.863 326.4-6.863 265.6 30.63 228.1L139.7 119L34.34 13.66C31.22 10.53 31.22 5.467 34.34 2.343V2.343zM242.3 221.7L151 130.3L41.94 239.4C28.36 253 20.68 270.3 18.91 288H454.6L474.3 268.3C489.1 252.7 489.1 227.3 474.3 211.7L300.3 37.66C284.7 22.04 259.3 22.04 243.7 37.66L162.3 119L253.7 210.3C256.8 213.5 256.8 218.5 253.7 221.7C250.5 224.8 245.5 224.8 242.3 221.7H242.3zM18.91 304C20.68 321.7 28.36 338.1 41.94 352.6L159.4 470.1C190.7 501.3 241.3 501.3 272.6 470.1L438.6 304H18.91zM576 448C576 483.3 547.3 512 512 512C476.7 512 448 483.3 448 448C448 422.8 480.6 368.4 499.2 339.3C505.3 329.9 518.7 329.9 524.8 339.3C543.4 368.4 576 422.8 576 448H576zM555.6 429.1C552.6 421.7 548.2 412.3 543.2 402.4C533.3 383.2 521.1 363.3 512 349C502.9 363.3 490.7 383.2 480.9 402.4C475.8 412.3 471.4 421.7 468.4 429.1C465.2 438.6 464 444.6 464 448C464 474.5 485.5 496 512 496C538.5 496 560 474.5 560 448C560 444.6 558.8 438.6 555.6 429.1z"/></svg>

<svg xmlns="http://www.w3.org/2000/svg" viewBox="0 0 576 512"><!--! Font Awesome Pro 6.4.0 by @fontawesome - https://fontawesome.com License - https://fontawesome.com/license (Commercial License) Copyright 2023 Fonticons, Inc. --><path d="M34.3 2.3c3.1-3.1 8.2-3.1 11.3 0L151 107.7l81.4-81.4c21.9-21.9 57.3-21.9 79.2 0L485.7 200.4c21.9 21.9 21.9 57.3 0 79.2L283.9 481.4c-37.5 37.5-98.3 37.5-135.8 0L30.6 363.9c-37.5-37.5-37.5-98.3 0-135.8L139.7 119 34.3 13.7c-3.1-3.1-3.1-8.2 0-11.3zm208 219.3L151 130.3 41.9 239.4C28.4 253 20.7 270.3 18.9 288H454.6l19.7-19.7c15.6-15.6 15.6-40.9 0-56.6L300.3 37.7c-15.6-15.6-40.9-15.6-56.6 0L162.3 119l91.3 91.3c3.1 3.1 3.1 8.2 0 11.3s-8.2 3.1-11.3 0zM18.9 304c1.8 17.7 9.4 35 23 48.6L159.4 470.1c31.2 31.2 81.9 31.2 113.1 0L438.6 304H18.9zM560 448c0-3.4-1.2-9.4-4.4-18c-3-8.3-7.4-17.7-12.5-27.6c-9.9-19.2-22-39.1-31.2-53.4c-9.1 14.3-21.3 34.1-31.2 53.4c-5.1 9.9-9.4 19.3-12.5 27.6c-3.2 8.6-4.4 14.6-4.4 18c0 26.5 21.5 48 48 48s48-21.5 48-48zm16 0c0 35.3-28.7 64-64 64s-64-28.7-64-64c0-25.2 32.6-79.6 51.2-108.7c6-9.4 19.5-9.4 25.5 0C543.4 368.4 576 422.8 576 448z"/></svg>
